src/assets/svg/partners-4.svg

<svg width="117" height="34" viewBox="0 0 117 34" fill="none" xmlns="http://www.w3.org/2000/svg">
<path d="M54.3207 22.4057C54.4999 22.4057 54.6548 22.4749 54.7851 22.6133L56.0807 24.018C55.3637 24.9056 54.4795 25.5856 53.4284 26.0578C52.3855 26.5301 51.1307 26.7663 49.6639 26.7663C48.3521 26.7663 47.1706 26.5424 46.1195 26.0945C45.0765 25.6466 44.1843 25.0237 43.4428 24.2257C42.7013 23.4277 42.1309 22.4749 41.7317 21.3674C41.3405 20.2599 41.145 19.0507 41.145 17.7396C41.145 16.4123 41.365 15.199 41.805 14.0996C42.245 12.9922 42.8643 12.0395 43.6628 11.2414C44.4613 10.4434 45.4147 9.8245 46.5228 9.38474C47.6391 8.93694 48.8695 8.71295 50.2139 8.71295C51.5258 8.71295 52.6707 8.92466 53.6484 9.34817C54.6344 9.76347 55.4777 10.3172 56.1784 11.0094L55.0785 12.5362C55.0133 12.6339 54.9277 12.7194 54.8218 12.7927C54.724 12.866 54.5855 12.9026 54.4063 12.9026C54.2188 12.9026 54.0273 12.8294 53.8318 12.6827C53.6362 12.5362 53.3877 12.3774 53.0862 12.2064C52.7847 12.0353 52.4017 11.8766 51.9373 11.73C51.481 11.5835 50.8984 11.5102 50.1895 11.5102C49.3584 11.5102 48.5924 11.6567 47.8917 11.9498C47.1991 12.2349 46.6002 12.6461 46.095 13.1835C45.598 13.721 45.2069 14.3765 44.9217 15.1501C44.6446 15.9156 44.5062 16.7787 44.5062 17.7396C44.5062 18.7331 44.6446 19.6167 44.9217 20.3902C45.2069 21.1638 45.5899 21.8153 46.0706 22.3445C46.5513 22.8739 47.1177 23.281 47.7695 23.5661C48.4213 23.843 49.1221 23.9814 49.8717 23.9814C50.3199 23.9814 50.7233 23.9569 51.0817 23.908C51.4484 23.8592 51.7825 23.7818 52.084 23.676C52.3936 23.5701 52.6829 23.4358 52.9518 23.2729C53.2288 23.1019 53.5018 22.8943 53.7706 22.65C53.8521 22.5767 53.9377 22.5197 54.0273 22.479C54.117 22.43 54.2148 22.4057 54.3207 22.4057Z" fill="#969FA4"/>
<path d="M67.7383 26.5709H66.3817C66.0965 26.5709 65.8724 26.5301 65.7094 26.4487C65.5465 26.3592 65.4243 26.1841 65.3428 25.9235L65.0739 25.0318C64.756 25.3168 64.4424 25.5693 64.1327 25.7892C63.8313 26.0009 63.5176 26.18 63.1916 26.3266C62.8657 26.4732 62.5194 26.5831 62.1528 26.6564C61.7861 26.7297 61.3786 26.7663 60.9305 26.7663C60.4008 26.7663 59.912 26.6972 59.4638 26.5587C59.0157 26.4121 58.6286 26.1963 58.3027 25.9113C57.9849 25.6263 57.7364 25.2721 57.5571 24.8486C57.3778 24.4252 57.2882 23.9325 57.2882 23.3706C57.2882 22.8984 57.4104 22.4342 57.6549 21.9782C57.9075 21.514 58.323 21.0987 58.9016 20.7322C59.4801 20.3577 60.2501 20.0483 61.2116 19.804C62.1731 19.5597 63.3668 19.4212 64.7927 19.3887V18.6557C64.7927 17.817 64.6135 17.1981 64.2549 16.7992C63.9046 16.392 63.3913 16.1884 62.7149 16.1884C62.226 16.1884 61.8187 16.2454 61.4927 16.3594C61.1668 16.4734 60.8816 16.6037 60.6371 16.7503C60.4008 16.8887 60.1808 17.015 59.9771 17.1289C59.7734 17.2429 59.5494 17.3 59.3049 17.3C59.1012 17.3 58.926 17.247 58.7793 17.1412C58.6327 17.0353 58.5146 16.905 58.4249 16.7503L57.8749 15.7853C59.3171 14.4661 61.0568 13.8065 63.0938 13.8065C63.8272 13.8065 64.4791 13.9287 65.0495 14.173C65.628 14.4091 66.1168 14.743 66.5161 15.1746C66.9154 15.5981 67.2169 16.107 67.4206 16.7014C67.6324 17.2959 67.7383 17.9473 67.7383 18.6557V26.5709ZM61.8716 24.6898C62.1812 24.6898 62.4664 24.6613 62.7272 24.6043C62.9879 24.5474 63.2324 24.4619 63.4605 24.3478C63.6968 24.2338 63.9209 24.0954 64.1327 23.9325C64.3528 23.7616 64.5728 23.562 64.7927 23.334V21.2208C63.9127 21.2616 63.1753 21.3389 62.5805 21.453C61.9939 21.5588 61.5212 21.6973 61.1627 21.8683C60.8042 22.0392 60.5475 22.2388 60.3927 22.4667C60.2461 22.6948 60.1727 22.9431 60.1727 23.2118C60.1727 23.7412 60.3276 24.1198 60.6371 24.3478C60.955 24.5758 61.3665 24.6898 61.8716 24.6898Z" fill="#969FA4"/>
<path d="M70.2179 26.5709V14.0386H71.9902C72.2998 14.0386 72.5157 14.0956 72.6379 14.2096C72.7601 14.3236 72.8416 14.519 72.8823 14.7959L73.0657 16.3106C73.5138 15.537 74.0394 14.9262 74.6424 14.4783C75.2453 14.0305 75.9217 13.8065 76.6713 13.8065C77.2906 13.8065 77.8039 13.9491 78.2113 14.2341L77.8202 16.4938C77.7958 16.6404 77.7427 16.7462 77.6613 16.8114C77.5799 16.8683 77.4698 16.8969 77.3313 16.8969C77.2091 16.8969 77.0421 16.8683 76.8301 16.8114C76.6183 16.7543 76.3372 16.7259 75.9868 16.7259C75.3594 16.7259 74.8216 16.9009 74.3735 17.2511C73.9253 17.5931 73.5464 18.098 73.2368 18.7657V26.5709H70.2179Z" fill="#969FA4"/>
<path d="M88.5316 26.5708C88.1408 26.5708 87.8844 26.3876 87.7616 26.0212L87.5176 24.8119C87.257 25.1051 86.984 25.3697 86.6986 25.6059C86.4132 25.8421 86.1036 26.0456 85.7692 26.2166C85.444 26.3876 85.0896 26.5179 84.7063 26.6075C84.3312 26.7052 83.9238 26.7541 83.484 26.7541C82.7996 26.7541 82.1722 26.6115 81.6018 26.3266C81.0315 26.0416 80.5385 25.6304 80.1229 25.0929C79.7155 24.5473 79.3977 23.8755 79.1696 23.0774C78.9495 22.2794 78.8396 21.3674 78.8396 20.3414C78.8396 19.4131 78.9659 18.5499 79.2185 17.7519C79.4711 16.9538 79.8337 16.2617 80.3063 15.6753C80.7788 15.089 81.3451 14.633 82.0052 14.3073C82.6652 13.9734 83.4068 13.8065 84.23 13.8065C84.9303 13.8065 85.5294 13.9205 86.0265 14.1486C86.5235 14.3684 86.9674 14.6656 87.3583 15.0402V8.4198H90.3779V26.5708H88.5316ZM84.5104 24.36C85.1378 24.36 85.6722 24.2297 86.1119 23.9692C86.5517 23.7085 86.9674 23.338 87.3583 22.8576V17.2388C87.0164 16.8235 86.6413 16.5304 86.2339 16.3594C85.8348 16.1884 85.4033 16.1029 84.9386 16.1029C84.4822 16.1029 84.0665 16.1884 83.6914 16.3594C83.3255 16.5304 83.0119 16.7909 82.7507 17.1411C82.4981 17.4831 82.3026 17.9229 82.1641 18.4603C82.0256 18.9896 81.9563 19.6167 81.9563 20.3414C81.9563 21.0743 82.0133 21.6972 82.1274 22.2102C82.2496 22.7151 82.4207 23.1304 82.6407 23.4561C82.8607 23.7737 83.1297 24.0058 83.4475 24.1523C83.7653 24.2908 84.1196 24.36 84.5104 24.36Z" fill="#969FA4"/>
<path d="M98.3422 13.8431C99.1322 13.8431 99.8574 13.9694 100.517 14.2218C101.186 14.4742 101.76 14.8447 102.241 15.3333C102.722 15.8138 103.096 16.4082 103.365 17.1167C103.634 17.817 103.769 18.6191 103.769 19.523C103.769 19.751 103.757 19.9423 103.732 20.0971C103.716 20.2437 103.679 20.3618 103.622 20.4513C103.573 20.5328 103.503 20.5938 103.414 20.6345C103.324 20.6671 103.211 20.6834 103.072 20.6834H95.3226C95.4122 21.97 95.7591 22.9146 96.3615 23.5172C96.9648 24.1198 97.763 24.4211 98.7571 24.4211C99.2467 24.4211 99.6657 24.3641 100.017 24.25C100.375 24.1361 100.685 24.0099 100.945 23.8714C101.214 23.733 101.446 23.6068 101.642 23.4928C101.846 23.3787 102.041 23.3218 102.229 23.3218C102.351 23.3218 102.457 23.3462 102.547 23.3951C102.636 23.4439 102.714 23.5132 102.778 23.6027L103.659 24.702C103.324 25.0929 102.95 25.4227 102.534 25.6914C102.119 25.952 101.683 26.1637 101.227 26.3266C100.778 26.4813 100.318 26.5912 99.8449 26.6564C99.3811 26.7215 98.9289 26.7541 98.4882 26.7541C97.617 26.7541 96.8063 26.6115 96.0561 26.3266C95.3068 26.0334 94.6546 25.6059 94.1003 25.0441C93.5469 24.474 93.1104 23.7737 92.7926 22.9431C92.4748 22.1044 92.3163 21.1353 92.3163 20.036C92.3163 19.181 92.4549 18.3789 92.732 17.6297C93.0092 16.8724 93.4041 16.2168 93.9178 15.6631C94.4389 15.1013 95.0704 14.6575 95.8122 14.3317C96.5615 14.006 97.4045 13.8431 98.3422 13.8431ZM98.4028 16.0051C97.5232 16.0051 96.8345 16.2535 96.3374 16.7502C95.8404 17.247 95.5226 17.9513 95.384 18.8634H101.056C101.056 18.4725 101.003 18.1061 100.896 17.7641C100.79 17.4139 100.627 17.1086 100.408 16.848C100.188 16.5874 99.9105 16.3838 99.5761 16.2372C99.2425 16.0825 98.8509 16.0051 98.4028 16.0051Z" fill="#969FA4"/>
<path d="M114.553 26.5708C114.162 26.5708 113.906 26.3876 113.783 26.0212L113.539 24.8119C113.278 25.1051 113.005 25.3697 112.72 25.6059C112.435 25.8421 112.125 26.0456 111.791 26.2166C111.465 26.3876 111.11 26.5179 110.728 26.6075C110.353 26.7052 109.945 26.7541 109.505 26.7541C108.821 26.7541 108.194 26.6115 107.623 26.3266C107.053 26.0416 106.56 25.6304 106.144 25.0929C105.737 24.5473 105.419 23.8755 105.191 23.0774C104.971 22.2794 104.861 21.3674 104.861 20.3414C104.861 19.4131 104.987 18.5499 105.239 17.7519C105.493 16.9538 105.855 16.2617 106.327 15.6753C106.8 15.089 107.366 14.633 108.027 14.3073C108.686 13.9734 109.428 13.8065 110.251 13.8065C110.952 13.8065 111.551 13.9205 112.048 14.1486C112.545 14.3684 112.989 14.6656 113.38 15.0402V8.4198H116.398V26.5708H114.553ZM110.532 24.36C111.159 24.36 111.694 24.2297 112.133 23.9692C112.573 23.7085 112.989 23.338 113.38 22.8576V17.2388C113.038 16.8235 112.663 16.5304 112.255 16.3594C111.856 16.1884 111.424 16.1029 110.96 16.1029C110.504 16.1029 110.088 16.1884 109.713 16.3594C109.346 16.5304 109.032 16.7909 108.772 17.1411C108.52 17.4831 108.324 17.9229 108.185 18.4603C108.047 18.9896 107.978 19.6167 107.978 20.3414C107.978 21.0743 108.034 21.6972 108.149 22.2102C108.271 22.7151 108.442 23.1304 108.662 23.4561C108.882 23.7737 109.151 24.0058 109.469 24.1523C109.787 24.2908 110.141 24.36 110.532 24.36Z" fill="#969FA4"/>
<path fill-rule="evenodd" clip-rule="evenodd" d="M7.07577 6.8814C7.6206 5.01781 9.57392 3.94846 11.4387 4.49294L23.1902 7.92423C25.055 8.46872 26.125 10.4209 25.5802 12.2844L20.3182 30.2833C19.7733 32.1469 17.82 33.2162 15.9552 32.6717L4.20373 29.2404C2.33896 28.696 1.26894 26.7438 1.81377 24.8802L7.07577 6.8814ZM10.6799 7.08859C10.2495 6.96294 9.7988 7.20971 9.67308 7.63978L4.41105 25.6386C4.28532 26.0686 4.53224 26.5192 4.96257 26.6448L16.7141 30.076C17.1444 30.2017 17.5952 29.955 17.7209 29.5249L22.983 11.5261C23.1087 11.096 22.8617 10.6455 22.4314 10.5199L10.6799 7.08859Z" fill="#969FA4"/>
<path fill-rule="evenodd" clip-rule="evenodd" d="M14.417 3.71673C14.9617 1.85314 16.9151 0.78378 18.7799 1.32827L30.5314 4.75956C32.3961 5.30404 33.4662 7.25619 32.9214 9.11977L27.6594 27.1185C27.1145 28.9822 25.1611 30.0515 23.2964 29.5071L11.5449 26.0757C9.68013 25.5312 8.61012 23.5791 9.15496 21.7155L14.417 3.71673ZM18.0211 3.92392C17.5907 3.79827 17.1399 4.04504 17.0142 4.4751L11.7522 22.4739C11.6265 22.904 11.8734 23.3544 12.3038 23.4801L24.0553 26.9114C24.4856 27.037 24.9364 26.7902 25.0621 26.3602L30.3241 8.36141C30.4498 7.93135 30.2029 7.48086 29.7725 7.35521L18.0211 3.92392Z" fill="#969FA4"/>
</svg>

<svg xmlns="http://www.w3.org/2000/svg" width="117" height="34" fill="none">
  <path fill="#969FA4" d="M54.32 22.4c.18 0 .33.07.47.21l1.3 1.4a7.1 7.1 0 0 1-2.66 2.05c-1.04.47-2.3.7-3.77.7-1.3 0-2.49-.22-3.54-.67a7.81 7.81 0 0 1-4.39-4.72 10.82 10.82 0 0 1 .08-7.27 8.34 8.34 0 0 1 4.71-4.72 9.83 9.83 0 0 1 3.7-.67c1.3 0 2.45.21 3.43.64.98.41 1.83.97 2.53 1.66l-1.1 1.53a.96.96 0 0 1-.26.25.68.68 0 0 1-.41.11.96.96 0 0 1-.58-.22 6.04 6.04 0 0 0-1.9-.95 5.82 5.82 0 0 0-1.74-.22c-.83 0-1.6.15-2.3.44a5.1 5.1 0 0 0-2.97 3.2 7.57 7.57 0 0 0-.41 2.59c0 1 .13 1.88.41 2.65a5.9 5.9 0 0 0 1.15 1.95 4.95 4.95 0 0 0 3.8 1.64c.45 0 .85-.02 1.21-.07a5.03 5.03 0 0 0 1.87-.64c.28-.17.55-.38.82-.62a1 1 0 0 1 .26-.17.6.6 0 0 1 .3-.07Zm13.42 4.17h-1.36c-.28 0-.5-.04-.67-.12a.9.9 0 0 1-.37-.53l-.27-.89c-.31.29-.63.54-.94.76a5.7 5.7 0 0 1-1.98.87 6.25 6.25 0 0 1-2.69-.1 2.95 2.95 0 0 1-1.9-1.71 3.77 3.77 0 0 1-.27-1.48 3 3 0 0 1 .36-1.4 3.5 3.5 0 0 1 1.25-1.24 7.82 7.82 0 0 1 2.31-.93 16.5 16.5 0 0 1 3.58-.41v-.73c0-.84-.18-1.46-.54-1.86-.35-.4-.86-.61-1.54-.61a3.74 3.74 0 0 0-2.07.56l-.66.38c-.2.11-.43.17-.68.17a.87.87 0 0 1-.52-.16c-.15-.1-.27-.23-.36-.39l-.55-.96a7.46 7.46 0 0 1 5.22-1.98 5 5 0 0 1 1.96.36 4.05 4.05 0 0 1 2.37 2.53c.21.6.32 1.25.32 1.96v7.91Zm-5.87-1.88a4 4 0 0 0 .86-.09 3.83 3.83 0 0 0 1.4-.67c.22-.17.44-.37.66-.6v-2.1c-.88.03-1.61.1-2.21.22a5.7 5.7 0 0 0-1.42.42c-.36.17-.61.37-.77.6-.14.22-.22.47-.22.74 0 .53.16.91.47 1.14.31.23.73.34 1.23.34Zm8.35 1.88V14.04h1.77c.31 0 .53.06.65.17.12.11.2.3.24.59l.19 1.51c.44-.77.97-1.38 1.57-1.83a3.3 3.3 0 0 1 2.03-.67c.62 0 1.13.14 1.54.42l-.39 2.26c-.02.15-.08.26-.16.32a.57.57 0 0 1-.33.09c-.12 0-.29-.03-.5-.09-.21-.06-.5-.08-.84-.08-.63 0-1.17.17-1.62.52a4 4 0 0 0-1.13 1.52v7.8h-3.02Zm18.31 0c-.39 0-.65-.18-.77-.55l-.24-1.2c-.26.29-.54.55-.82.79a5.08 5.08 0 0 1-3.22 1.14 4.15 4.15 0 0 1-3.36-1.66 6.17 6.17 0 0 1-.95-2.01 10.31 10.31 0 0 1 .05-5.33 6.3 6.3 0 0 1 1.09-2.07 5 5 0 0 1 5.72-1.53c.5.22.94.52 1.33.89V8.42h3.02v18.15h-1.85Zm-4.02-2.21a3.1 3.1 0 0 0 1.6-.4c.44-.25.86-.62 1.25-1.1v-5.62a2.95 2.95 0 0 0-2.42-1.14 3 3 0 0 0-1.25.26 2.5 2.5 0 0 0-.94.78 3.8 3.8 0 0 0-.59 1.32 7.5 7.5 0 0 0-.2 1.88c0 .73.05 1.36.17 1.87.12.5.3.92.51 1.25a2 2 0 0 0 .8.7c.33.13.68.2 1.07.2Zm13.83-10.52c.8 0 1.52.13 2.18.38a4.72 4.72 0 0 1 2.84 2.9 6.68 6.68 0 0 1 .37 2.98.82.82 0 0 1-.1.35.46.46 0 0 1-.22.18.84.84 0 0 1-.34.05h-7.75c.1 1.29.44 2.23 1.04 2.84.6.6 1.4.9 2.4.9a4.27 4.27 0 0 0 2.18-.55c.27-.14.5-.26.7-.38.2-.11.4-.17.59-.17.12 0 .23.03.32.08a.7.7 0 0 1 .23.2l.88 1.1a5.18 5.18 0 0 1-2.43 1.63 8.04 8.04 0 0 1-2.74.43 6.8 6.8 0 0 1-2.43-.43 5.56 5.56 0 0 1-3.27-3.39 8.18 8.18 0 0 1-.06-5.31 5.64 5.64 0 0 1 3.08-3.3c.75-.32 1.6-.49 2.53-.49Zm.06 2.17a2.8 2.8 0 0 0-2.06.74c-.5.5-.82 1.2-.96 2.11h5.68c0-.39-.06-.75-.16-1.1a2.45 2.45 0 0 0-1.32-1.52A2.77 2.77 0 0 0 98.4 16Zm16.15 10.56c-.39 0-.64-.18-.77-.55l-.24-1.2c-.26.29-.54.55-.82.79a5.08 5.08 0 0 1-3.22 1.14 4.15 4.15 0 0 1-3.36-1.66 6.18 6.18 0 0 1-.95-2.01 10.32 10.32 0 0 1 .05-5.33c.25-.8.62-1.49 1.09-2.07a5 5 0 0 1 5.72-1.53c.5.22.94.52 1.33.89V8.42h3.02v18.15h-1.85Zm-4.02-2.21a3 3 0 0 0 1.6-.4c.44-.25.86-.62 1.25-1.1v-5.62a2.95 2.95 0 0 0-2.42-1.14 3 3 0 0 0-1.25.26 2.5 2.5 0 0 0-.94.78c-.25.34-.45.78-.58 1.32a7.44 7.44 0 0 0-.21 1.88c0 .73.05 1.36.17 1.87.12.5.3.92.51 1.25a2 2 0 0 0 .8.7c.33.13.68.2 1.07.2Z"/>
  <path fill="#969FA4" fill-rule="evenodd" d="M7.08 6.88a3.52 3.52 0 0 1 4.36-2.39l11.75 3.43a3.52 3.52 0 0 1 2.39 4.36l-5.26 18a3.52 3.52 0 0 1-4.36 2.4L4.2 29.23a3.52 3.52 0 0 1-2.39-4.36l5.27-18Zm3.6.2a.81.81 0 0 0-1 .56l-5.27 18a.8.8 0 0 0 .55 1l11.75 3.44a.81.81 0 0 0 1.01-.56l5.26-18a.81.81 0 0 0-.55-1L10.68 7.09Z" clip-rule="evenodd"/>
  <path fill="#969FA4" fill-rule="evenodd" d="M14.42 3.72a3.52 3.52 0 0 1 4.36-2.4l11.75 3.44a3.52 3.52 0 0 1 2.4 4.36l-5.27 18a3.52 3.52 0 0 1-4.36 2.39l-11.76-3.43a3.52 3.52 0 0 1-2.39-4.36l5.27-18Zm3.6.2a.81.81 0 0 0-1 .56l-5.27 18c-.12.42.12.87.55 1l11.76 3.43a.81.81 0 0 0 1-.55l5.26-18a.81.81 0 0 0-.55-1L18.02 3.92Z" clip-rule="evenodd"/>
</svg>
